packages/core/src/svgs/tokens/mono/FPIS.svg

<svg width="24" height="24" viewBox="0 0 24 24" fill="none" xmlns="http://www.w3.org/2000/svg">
<path fill-rule="evenodd" clip-rule="evenodd" d="M3.875 4.22499L6.09374 2L8.5438 4.46249C9.29513 4.07411 10.1291 3.87258 10.975 3.87499H13.0249C13.8999 3.87499 14.7312 4.08748 15.4563 4.46249L17.9063 2L20.125 4.22499L17.6812 6.68123C18.0568 7.40525 18.2519 8.20931 18.25 9.02497V10.0687C18.25 12.9124 15.9124 15.125 13.0249 15.125H8.87498V22H5.75V9.01872C5.75 8.18123 5.95625 7.38747 6.31875 6.68123L3.875 4.22499ZM8.87498 9.16248C8.88811 8.57783 9.13223 8.02218 9.55383 7.61697C9.97544 7.21175 10.5402 6.98992 11.125 6.99998H12.875C14.1124 6.99998 15.1249 7.96872 15.1249 9.16248V9.83754C15.1118 10.422 14.8678 10.9778 14.4462 11.3829C14.0246 11.7882 13.4597 12.01 12.875 11.9999H8.87498V9.16248Z" fill="white"/>
</svg>

<svg xmlns="http://www.w3.org/2000/svg" width="24" height="24" fill="none" viewBox="0 0 24 24">
    <path fill="#fff" fill-rule="evenodd" d="M3.875 4.225 6.094 2l2.45 2.462a5.26 5.26 0 0 1 2.431-.587h2.05c.875 0 1.706.212 2.431.587L17.906 2l2.219 2.225-2.444 2.456a5.1 5.1 0 0 1 .569 2.344v1.044c0 2.843-2.338 5.056-5.225 5.056h-4.15V22H5.75V9.019c0-.838.206-1.632.569-2.338zm5 4.937A2.213 2.213 0 0 1 11.125 7h1.75c1.237 0 2.25.969 2.25 2.162v.676A2.21 2.21 0 0 1 12.875 12h-4z" clip-rule="evenodd"/>
</svg>
